X:6098
T:Sleep Sound Ida Moarmin
O:england
M:4/4
L:1/8
K:G
|:BG|"Am"Aa2g a2ef|"G"gedB GABG|"Am"Aa2g a2ef|"G"gedB "Am"A2:|
AB|"Am"cAeA cAeA|"G"BcdB +G3B3+B|"Am"cAeA cAeA|"G"BAGB "Am"A2AB|
cAeA cAeA|"G"BcdB G3B|"Am"ABcd efga|"G"gedB "Am"A2||


